X:1
T:Pierson, 98.98 D
T:Pierson, 98.98 D
T:James McGranahan, 1877
T:Public Domain Courtesy of the Cyber Hymnal™
C:James McGranahan, 1877
Z:Public Domain
Z:Courtesy of the Cyber Hymnal™
%%score ( 1 2 ) ( 3 4 )
L:1/8
Q:1/4=98
M:6/8
K:G
V:1 treble 
V:2 treble 
V:3 bass 
V:4 bass 
V:1
 D | D[DG][DG] [DG][DA][DB] | [EA]3 [CE]2 [CE] | [B,D][DF][DA] [DA][DB][Dc] | [DB]3- [DB]2 D | %5
 D[DG][DG] [DG][DA][DB] | [EA]3 [CE]2 [Ec] | [DB][CA][B,G] [CA][CE][CF] | [B,G]3- [B,G]2 [DB] | %9
 [Gd][Gd][Gd] [Gd][GB][Gd] | [Ge]3 [Gc]2 [Ge] | [Gd][Gd][Gd] [Bd][Ac][GB] | [FA]3- [FA]2 D | %13
 D[DG][DG] [DG][DA][DB] | [EA]3 [CE]2 [Ec] | [DB][CA][B,G] [CA][CE][CF] | [B,G]3- [B,G]2 |] %17
V:2
 D | D x5 | x6 | x6 | x5 D | D x5 | x6 | x6 | x6 | x6 | x6 | x6 | x5 D | D x5 | x6 | x6 | x5 |] %17
V:3
 [G,B,] | [G,B,][G,B,][G,B,] [G,B,][G,C][G,D] | [C,C]3 [C,G,]2 [C,G,] | %3
 [D,G,][D,A,][D,F,] [D,F,][D,G,][D,A,] | G,3- G,2 [G,B,] | [G,B,][G,B,][G,B,] [G,B,][G,C][G,D] | %6
 [C,C]3 [C,G,]2 [C,G,] | [D,G,][D,F,][D,G,] [D,F,][D,G,][D,A,] | [G,,G,]3- [G,,G,]2 G, | %9
 [G,B,][G,B,][G,B,] [G,B,][G,D][G,B,] | [C,C]3 [C,E]2 [C,C] | [G,B,][G,B,][G,B,] [G,D][G,D][G,D] | %12
 [D,D]3- [D,D]2 [D,C] | [G,,B,][G,,B,][G,,B,] [G,,B,][G,,C][G,,D] | [C,C]3 [C,G,]2 [C,G,] | %15
 [D,F,][D,F,][D,G,] [D,F,][D,G,][D,A,] | [G,,G,]3- [G,,G,]2 |] %17
V:4
 x | x6 | x6 | x6 | G,3- G,2 x | x6 | x6 | x6 | x5 G, | x6 | x6 | x6 | x6 | x6 | x6 | x6 | x5 |] %17

